;FLAVOR:Marlin
;TIME:24129
;Filament used: 33.2697m
;Layer height: 0.3
;MINX:16.306
;MINY:23.893
;MINZ:0.2
;MAXX:234.769
;MAXY:171.904
;MAXZ:6.5
;Generated with Cura_SteamEngine 5.2.1
M82 ;absolute extrusion mode
G21 ; set units to millimeters
G90 ; use absolute positioning
M82 ; absolute extrusion mode
M104 S210.0 ; set extruder temp
M140 S60 ; set bed temp
M190 S60 ; wait for bed temp
M109 S210.0 ; wait for extruder temp
G28 W ; home all without mesh bed level
G80 ; mesh bed leveling
G92 E0.0 ; reset extruder distance position
G1 Y-3.0 F1000.0 ; go outside print area
G1 X60.0 E9.0 F1000.0 ; intro line
G1 X100.0 E21.5 F1000.0 ; intro line
G92 E0.0 ; reset extruder distance position
G92 E0
G92 E0
G1 F2100 E-0.8
;LAYER_COUNT:22
;LAYER:0
M107
G0 F3600 X19.054 Y25.665 Z0.2
;TYPE:SKIRT
G1 F2100 E0
G1 F1800 X19.48 Y25.393 E0.01681
G1 X19.944 Y25.192 E0.03363
G1 X20.434 Y25.067 E0.05045
G1 X20.947 Y25.012 E0.06761
G1 X228.605 Y23.893 E6.97444
G1 X229.268 Y23.899 E6.99649
G1 X229.772 Y23.944 E7.01332
G1 X230.262 Y24.067 E7.03013
G1 X230.727 Y24.266 E7.04695
G1 X231.154 Y24.535 E7.06374
G1 X231.534 Y24.869 E7.08056
G1 X231.857 Y25.258 E7.09738
G1 X232.114 Y25.694 E7.11421
G1 X232.299 Y26.164 E7.13101
G1 X232.408 Y26.658 E7.14784
G1 X232.451 Y27.406 E7.17276
G1 X232.514 Y38.976 E7.55758
G1 X232.563 Y41.566 E7.64374
G1 X232.618 Y51.934 E7.98859
G1 X232.675 Y54.772 E8.083
G1 X232.71 Y55.813 E8.11764
G1 X232.773 Y67.612 E8.51008
G1 X232.812 Y69.968 E8.58846
G1 X232.875 Y81.651 E8.97704
G1 X232.875 Y83.885 E9.05134
G1 X232.939 Y95.845 E9.44914
G1 X232.939 Y98.076 E9.52334
G1 X232.949 Y99.934 E9.58514
G1 X233.003 Y102.67 E9.67616
G1 X233.133 Y105.39 E9.76673
G1 X233.341 Y108.125 E9.85796
G1 X233.629 Y110.872 E9.94983
G1 X233.989 Y113.57 E10.04036
G1 X234.36 Y115.89 E10.1185
G1 X234.481 Y116.588 E10.14206
G1 X234.537 Y117.135 E10.16035
G1 X234.538 Y119.475 E10.23818
G1 X234.528 Y120.174 E10.26143
G1 X234.492 Y121.048 E10.29052
G1 X234.414 Y123.84 E10.38342
G1 X234.414 Y126.559 E10.47386
G1 X234.493 Y129.319 E10.56569
G1 X234.601 Y131.43 E10.636
G1 X234.602 Y133.665 E10.71033
G1 X234.59 Y134.499 E10.73808
G1 X234.514 Y135.279 E10.76414
G1 X234.346 Y136.748 E10.81332
G1 X234.115 Y139.457 E10.90375
G1 X233.957 Y142.206 E10.99533
G1 X233.877 Y144.959 E11.08693
G1 X233.875 Y147.678 E11.17737
G1 X233.951 Y150.429 E11.2689
G1 X234.103 Y153.144 E11.35934
G1 X234.334 Y155.883 E11.45077
G1 X234.642 Y158.607 E11.54195
G1 X234.734 Y159.335 E11.56635
G1 X234.768 Y159.969 E11.58747
G1 X234.769 Y162.079 E11.65765
G1 X234.758 Y162.786 E11.68117
G1 X234.699 Y163.404 E11.70181
G1 X234.416 Y164.334 E11.73415
G1 X233.953 Y165.773 E11.78442
G1 X233.374 Y167.79 E11.85422
G1 X233.163 Y168.495 E11.8787
G1 X232.98 Y168.966 E11.8955
G1 X232.725 Y169.403 E11.91233
G1 X232.405 Y169.794 E11.92913
G1 X232.027 Y170.13 E11.94596
G1 X231.601 Y170.402 E11.96277
G1 X231.137 Y170.603 E11.97958
G1 X230.648 Y170.729 E11.99638
G1 X230.116 Y170.786 E12.01418
G1 X22.476 Y171.904 E18.92041
G1 X21.807 Y171.899 E18.94266
G1 X21.303 Y171.855 E18.95949
G1 X20.813 Y171.733 E18.97628
G1 X20.348 Y171.535 E18.99309
G1 X19.806 Y171.194 E19.01439
G1 X18.338 Y169.758 E19.08269
G1 X17.946 Y169.288 E19.10305
G1 X17.688 Y168.853 E19.11987
G1 X17.502 Y168.383 E19.13668
G1 X17.392 Y167.89 E19.15348
G1 X17.353 Y167.34 E19.17182
G1 X17.299 Y157.934 E19.48467
G1 X17.312 Y156.431 E19.53466
G1 X17.297 Y153.648 E19.62723
G1 X17.283 Y152.946 E19.65058
G1 X17.235 Y143.745 E19.95661
G1 X17.24 Y143.149 E19.97644
G1 X17.225 Y140.396 E20.068
G1 X17.18 Y138.579 E20.12845
G1 X17.132 Y129.527 E20.42953
G1 X17.144 Y128.12 E20.47633
G1 X17.136 Y125.783 E20.55406
G1 X17.115 Y124.386 E20.60053
G1 X17.068 Y115.336 E20.90154
G1 X17.081 Y113.832 E20.95156
G1 X17.066 Y111.049 E21.04413
G1 X17.052 Y110.339 E21.06774
G1 X17.003 Y101.153 E21.37328
G1 X17.016 Y99.69 E21.42194
G1 X17.001 Y96.942 E21.51334
G1 X16.987 Y96.044 E21.54321
G1 X16.939 Y86.928 E21.84641
G1 X16.951 Y85.519 E21.89328
G1 X16.943 Y83.172 E21.97134
G1 X16.922 Y81.777 E22.01774
G1 X16.873 Y72.697 E22.31975
G1 X16.879 Y72.054 E22.34114
G1 X16.864 Y69.318 E22.43214
G1 X16.82 Y67.711 E22.48561
G1 X16.769 Y58.014 E22.80813
G1 X16.716 Y55.279 E22.89912
G1 X16.587 Y52.575 E22.98916
G1 X16.419 Y50.264 E23.06622
G1 X16.418 Y47.923 E23.14409
G1 X16.429 Y47.166 E23.16927
G1 X16.522 Y44.044 E23.27315
G1 X16.522 Y41.332 E23.36335
G1 X16.444 Y38.586 E23.45472
G1 X16.307 Y35.996 E23.54098
G1 X16.306 Y33.714 E23.61688
G1 X16.318 Y33.005 E23.64047
G1 X16.378 Y32.386 E23.66115
G1 X16.662 Y31.453 E23.69359
G1 X17.133 Y29.987 E23.74481
G1 X17.716 Y27.963 E23.81486
G1 X17.916 Y27.298 E23.83796
G1 X18.099 Y26.827 E23.85476
G1 X18.354 Y26.391 E23.87156
G1 X18.675 Y26 E23.88839
G1 X19.054 Y25.665 E23.90521
G1 F2100 E23.10521
G0 F3600 X19.425 Y34.671
;TYPE:SUPPORT
G1 F2100 E23.90521
G1 F1800 X20.387 Y34.671 E23.93721
G1 F2100 E23.13721
G0 F3600 X20.343 Y34.672
G0 X20.449 Y48.007
G0 X20.494 Y48.006
G1 F2100 E23.93721
G1 F1800 X19.537 Y48.006 E23.96904
G1 F2100 E23.16904
G0 F3600 X19.891 Y58.674
G1 F2100 E23.96904
G1 F1800 X20.622 Y58.674 E23.99335
G0 F3600 X20.636 Y61.341
G1 F1800 X19.905 Y61.341 E24.01767
G0 F3600 X19.919 Y64.008
G1 F1800 X20.65 Y64.008 E24.04198
G0 F3600 X20.664 Y66.675
G1 F1800 X19.933 Y66.675 E24.06629
G1 F2100 E23.26629
G0 F3600 X19.989 Y72.009
G1 F2100 E24.06629
G1 F1800 X20.72 Y72.009 E24.09061
G0 F3600 X20.734 Y74.676
G1 F1800 X20.003 Y74.676 E24.11492
G0 F3600 X20.017 Y77.343
G1 F1800 X20.748 Y77.343 E24.13923
G0 F3600 X20.762 Y80.01
G1 F1800 X20.031 Y80.01 E24.16354
G1 F2100 E23.36354
G0 F3600 X20.063 Y88.011
G1 F2100 E24.16354
G1 F1800 X20.794 Y88.011 E24.18786
G0 F3600 X20.808 Y90.678
G1 F1800 X20.077 Y90.678 E24.21217
G0 F3600 X20.091 Y93.345
G1 F1800 X20.822 Y93.345 E24.23648
G0 F3600 X20.836 Y96.012
G1 F1800 X20.105 Y96.012 E24.2608
G1 F2100 E23.4608
G0 F3600 X20.123 Y101.346
G1 F2100 E24.2608
G1 F1800 X20.854 Y101.346 E24.28511
G0 F3600 X20.868 Y104.013
G1 F1800 X20.137 Y104.013 E24.30942
G0 F3600 X20.151 Y106.68
G1 F1800 X20.882 Y106.68 E24.33374
G0 F3600 X20.896 Y109.347
G1 F1800 X20.165 Y109.347 E24.35805
G1 F2100 E23.55805
G0 F3600 X20.183 Y114.681
G1 F2100 E24.35805
G1 F1800 X20.914 Y114.681 E24.38236
G0 F3600 X20.928 Y117.348
G1 F1800 X20.197 Y117.348 E24.40668
G0 F3600 X20.211 Y120.015
G1 F1800 X20.942 Y120.015 E24.43099
G0 F3600 X20.956 Y122.682
G1 F1800 X20.225 Y122.682 E24.4553
G1 F2100 E23.6553
G0 F3600 X20.257 Y130.683
G1 F2100 E24.4553
G1 F1800 X20.988 Y130.683 E24.47962
G0 F3600 X21.002 Y133.35
G1 F1800 X20.271 Y133.35 E24.50393
G0 F3600 X20.285 Y136.017
G1 F1800 X21.016 Y136.017 E24.52824
G0 F3600 X21.03 Y138.684
G1 F1800 X20.299 Y138.684 E24.55256
G1 F2100 E23.75256
G0 F3600 X20.355 Y144.018
G1 F2100 E24.55256
G1 F1800 X21.086 Y144.018 E24.57687
G0 F3600 X21.1 Y146.685
G1 F1800 X20.369 Y146.685 E24.60118
G0 F3600 X20.383 Y149.352
G1 F1800 X21.114 Y149.352 E24.62549
G0 F3600 X21.128 Y152.019
G1 F1800 X20.397 Y152.019 E24.64981
G1 F2100 E23.84981
G0 F3600 X20.414 Y157.353
G1 F2100 E24.64981
G1 F1800 X21.145 Y157.353 E24.67412
G0 F3600 X21.16 Y160.02
G1 F1800 X20.429 Y160.02 E24.69843
G0 F3600 X20.443 Y162.687
G1 F1800 X21.174 Y162.687 E24.72275
G0 F3600 X21.188 Y165.354
G1 F1800 X20.457 Y165.354 E24.74706
G1 F2100 E23.94706
G0 F3600 X21.177 Y169.364
G0 X230.76 Y168.236
G0 X230.742 Y162.686
G0 X230.697 Y162.687
G1 F2100 E24.74706
G1 F1800 X231.649 Y162.687 E24.77872
G0 F3600 X231.649 Y160.02
G1 F1800 X230.682 Y160.02 E24.81089
G1 F2100 E24.01089
G0 F3600 X230.727 Y160.019
G0 X230.57 Y133.349
G0 X230.525 Y133.35
G1 F2100 E24.81089
G1 F1800 X231.482 Y133.35 E24.84272
G1 F2100 E24.04272
G0 F3600 X231.418 Y120.015
G1 F2100 E24.84272
G1 F1800 X230.464 Y120.015 E24.87445
G0 F3600 X230.451 Y117.348
G1 F1800 X231.418 Y117.348 E24.90661
G1 F2100 E24.10661
;MESH:rack5.stl(1)
G0 F3600 X230.011 Y40.633
G0 X228.908 Y40.455
G0 X228.902 Y39.377
G0 X216.036 Y35.631
G0 X214.325 Y34.885
G1 F2100 E24.90661
G0 F3600 X214.558 Y34.706
;TYPE:WALL-INNER
G1 F1800 X214.322 Y34.126 E24.92744
G1 X214.233 Y33.519 E24.94784
G1 X214.316 Y32.911 E24.96825
G1 X214.512 Y32.415 E24.98599
G1 X214.868 Y31.911 E25.00651
G1 X215.4 Y31.468 E25.02954
G1 X216.02 Y31.226 E25.05167
G1 X216.502 Y31.16 E25.06786
G1 X217.115 Y31.216 E25.08833
G1 X217.765 Y31.456 E25.11137
G1 X218.298 Y31.89 E25.13424
G1 X218.663 Y32.393 E25.15491
G1 X218.864 Y32.888 E25.17268
G1 X218.946 Y33.494 E25.19301
G1 X218.87 Y34.104 E25.21346
G1 X218.673 Y34.601 E25.23124
G1 X218.318 Y35.103 E25.25169
G1 X217.787 Y35.546 E25.27469
G1 X217.164 Y35.789 E25.29693
G1 X216.684 Y35.855 E25.31305
G1 X216.07 Y35.799 E25.33356
G1 X215.499 Y35.588 E25.3538
G1 X214.993 Y35.229 E25.37444
G1 X214.558 Y34.706 E25.39706
G0 F3600 X214.325 Y34.885
G0 X21.847 Y29.077
G0 X21.576 Y28.808
G1 F1800 X21.638 Y40.307 E25.77953
G1 X228.714 Y39.192 E32.667
G1 X228.679 Y32.594 E32.88646
G1 X228.652 Y27.693 E33.04947
G1 X21.576 Y28.808 E39.93694
G0 F3600 X21.174 Y28.41
;TYPE:WALL-OUTER
G1 F1800 X21.24 Y40.709 E40.34601
G1 X229.116 Y39.59 E47.2601
G1 X229.079 Y32.592 E47.49286
G1 X229.05 Y27.291 E47.66917
G1 X21.174 Y28.41 E54.58325
G0 F3600 X21.175 Y28.61
G0 X21.847 Y29.077
G0 X216.606 Y36.107
G0 X217.784 Y35.803
G0 X218.539 Y35.304
G0 X217.984 Y34.882
G1 F1800 X217.556 Y35.207 E54.60113
G1 X217.085 Y35.397 E54.61802
G1 X216.63 Y35.459 E54.63329
G1 X216.092 Y35.399 E54.6513
G1 X215.604 Y35.192 E54.66893
G1 X215.235 Y34.911 E54.68436
G1 X214.905 Y34.496 E54.70199
G1 X214.708 Y34.023 E54.71903
G1 X214.641 Y33.491 E54.73687
G1 X214.712 Y32.984 E54.75389
G1 X214.882 Y32.566 E54.7689
G1 X215.202 Y32.133 E54.78681
G1 X215.631 Y31.807 E54.80473
G1 X216.1 Y31.618 E54.82155
G1 X216.556 Y31.556 E54.83686
G1 X217.065 Y31.613 E54.85389
G1 X217.562 Y31.807 E54.87164
G1 X217.982 Y32.136 E54.88938
G1 X218.294 Y32.547 E54.90654
G1 X218.477 Y32.99 E54.92249
G1 X218.546 Y33.496 E54.93947
G1 X218.474 Y34.031 E54.95743
G1 X218.303 Y34.449 E54.97245
G1 X217.984 Y34.882 E54.99033
G0 F3600 X217.825 Y35.003
G0 X218.254 Y35.557
G0 X217.279 Y36.014
G0 X215.933 Y36.022
G0 X214.764 Y35.355
G0 X213.849 Y33.519
;TYPE:SKIN
G1 F1800 X213.945 Y32.815 E55.01397
G1 X214.163 Y32.264 E55.03367
G1 X214.574 Y31.668 E55.05775
G1 X215.098 Y31.224 E55.0806
G1 X215.307 Y31.097 E55.08873
G1 X215.937 Y30.853 E55.1112
G1 X216.577 Y30.773 E55.13265
G1 X217.206 Y30.848 E55.15372
G1 X217.852 Y31.081 E55.17656
G1 X218.447 Y31.499 E55.20075
G1 X218.964 Y32.119 E55.2276
G1 X219.243 Y32.814 E55.25251
G1 X219.33 Y33.519 E55.27613
G1 X219.241 Y34.197 E55.29888
G1 X218.999 Y34.794 E55.3203
G1 X218.615 Y35.344 E55.34261
G1 X218.089 Y35.79 E55.36555
G1 X217.88 Y35.917 E55.37369
G1 X217.247 Y36.162 E55.39626
G1 X216.631 Y36.239 E55.41691
G1 X216.002 Y36.175 E55.43794
G1 X215.325 Y35.927 E55.46192
G1 X214.769 Y35.536 E55.48453
G1 X214.597 Y35.37 E55.49248
G1 X214.181 Y34.792 E55.51616
G1 X213.96 Y34.244 E55.53581
G1 X213.849 Y33.519 E55.56021
G0 F3600 X21.959 Y29.186
G1 F1800 X22.016 Y39.924 E55.91736
G1 X228.331 Y38.814 E62.77953
G1 X228.299 Y32.599 E62.98624
G1 X228.274 Y28.076 E63.13668
G1 X21.959 Y29.186 E69.99884
G0 F3600 X22.748 Y39.718
G1 F1800 X22.21 Y39.181 E70.02412
G0 F3600 X22.208 Y38.612
G1 F1800 X23.311 Y39.716 E70.07603
G0 F3600 X23.874 Y39.713
G1 F1800 X22.205 Y38.044 E70.15453
G0 F3600 X22.202 Y37.475
G1 F1800 X24.436 Y39.71 E70.25964
G0 F3600 X24.999 Y39.706
G1 F1800 X22.199 Y36.907 E70.39132
G0 F3600 X22.196 Y36.338
G1 F1800 X25.561 Y39.704 E70.54962
G0 F3600 X26.124 Y39.701
G1 F1800 X22.193 Y35.769 E70.73455
G0 F3600 X22.19 Y35.201
G1 F1800 X26.686 Y39.697 E70.94602
G0 F3600 X27.249 Y39.694
G1 F1800 X22.187 Y34.632 E71.18413
G0 F3600 X22.184 Y34.063
G1 F1800 X27.812 Y39.692 E71.44887
G0 F3600 X28.375 Y39.689
G1 F1800 X22.181 Y33.494 E71.74024
G0 F3600 X22.178 Y32.926
G1 F1800 X28.937 Y39.685 E72.05817
G0 F3600 X29.5 Y39.682
G1 F1800 X22.175 Y32.357 E72.40271
G0 F3600 X22.172 Y31.788
G1 F1800 X30.063 Y39.68 E72.7739
G0 F3600 X30.626 Y39.677
G1 F1800 X22.169 Y31.22 E73.17169
G0 F3600 X22.166 Y30.651
G1 F1800 X31.188 Y39.673 E73.59606
G0 F3600 X31.751 Y39.67
G1 F1800 X22.163 Y30.083 E74.04703
G0 F3600 X22.16 Y29.513
G1 F1800 X32.314 Y39.667 E74.52464
G0 F3600 X32.876 Y39.664
G1 F1800 X22.593 Y29.381 E75.00832
G0 F3600 X23.156 Y29.378
G1 F1800 X33.439 Y39.661 E75.492
G0 F3600 X34.001 Y39.658
G1 F1800 X23.719 Y29.376 E75.97564
G0 F3600 X24.281 Y29.372
G1 F1800 X34.564 Y39.655 E76.45932
G0 F3600 X35.126 Y39.652
G1 F1800 X24.844 Y29.369 E76.94298
G0 F3600 X25.407 Y29.366
G1 F1800 X35.689 Y39.649 E77.42663
G0 F3600 X36.252 Y39.646
G1 F1800 X25.969 Y29.364 E77.91029
G0 F3600 X26.532 Y29.36
G1 F1800 X36.814 Y39.643 E78.39395
G0 F3600 X37.377 Y39.64
G1 F1800 X27.094 Y29.357 E78.87763
G0 F3600 X27.657 Y29.354
G1 F1800 X37.94 Y39.637 E79.36131
G0 F3600 X38.503 Y39.634
G1 F1800 X28.219 Y29.351 E79.84501
G0 F3600 X28.782 Y29.348
G1 F1800 X39.065 Y39.631 E80.32869
G0 F3600 X39.628 Y39.628
G1 F1800 X29.345 Y29.345 E80.81237
G0 F3600 X29.908 Y29.342
G1 F1800 X40.191 Y39.625 E81.29606
G0 F3600 X40.754 Y39.622
G1 F1800 X30.47 Y29.339 E81.77976
G0 F3600 X31.033 Y29.336
G1 F1800 X41.316 Y39.619 E82.26344
G0 F3600 X41.879 Y39.616
G1 F1800 X31.596 Y29.333 E82.74712
G0 F3600 X32.159 Y29.33
G1 F1800 X42.441 Y39.613 E83.23078
G0 F3600 X43.004 Y39.61
G1 F1800 X32.721 Y29.327 E83.71446
G0 F3600 X33.284 Y29.324
G1 F1800 X43.566 Y39.607 E84.19812
G0 F3600 X44.129 Y39.604
G1 F1800 X33.847 Y29.321 E84.68177
G0 F3600 X34.409 Y29.318
G1 F1800 X44.692 Y39.601 E85.16545
G0 F3600 X45.254 Y39.597
G1 F1800 X34.972 Y29.315 E85.64909
G0 F3600 X35.534 Y29.312
G1 F1800 X45.817 Y39.595 E86.13277
G0 F3600 X46.38 Y39.592
G1 F1800 X36.097 Y29.309 E86.61645
G0 F3600 X36.659 Y29.306
G1 F1800 X46.942 Y39.588 E87.10011
G0 F3600 X47.505 Y39.585
G1 F1800 X37.222 Y29.303 E87.58376
G0 F3600 X37.785 Y29.3
G1 F1800 X48.068 Y39.583 E88.06745
G0 F3600 X48.631 Y39.58
G1 F1800 X38.347 Y29.296 E88.55117
G0 F3600 X38.91 Y29.294
G1 F1800 X49.193 Y39.576 E89.03483
G0 F3600 X49.756 Y39.573
G1 F1800 X39.473 Y29.291 E89.51849
G0 F3600 X40.036 Y29.288
G1 F1800 X50.319 Y39.571 E90.00217
G0 F3600 X50.881 Y39.567
G1 F1800 X40.598 Y29.284 E90.48585
G0 F3600 X41.161 Y29.281
G1 F1800 X51.444 Y39.564 E90.96953
G0 F3600 X52.006 Y39.561
G1 F1800 X41.724 Y29.279 E91.45316
G0 F3600 X42.287 Y29.276
G1 F1800 X52.569 Y39.559 E91.93682
G0 F3600 X53.132 Y39.555
G1 F1800 X42.849 Y29.272 E92.4205
G0 F3600 X43.412 Y29.269
G1 F1800 X53.694 Y39.552 E92.90416
G0 F3600 X54.257 Y39.549
G1 F1800 X43.974 Y29.267 E93.38782
G0 F3600 X44.537 Y29.263
G1 F1800 X54.82 Y39.547 E93.87152
G0 F3600 X55.382 Y39.543
G1 F1800 X45.099 Y29.26 E94.3552
G0 F3600 X45.662 Y29.257
G1 F1800 X55.945 Y39.54 E94.83888
G0 F3600 X56.508 Y39.537
G1 F1800 X46.225 Y29.255 E95.32254
G0 F3600 X46.787 Y29.251
G1 F1800 X57.07 Y39.534 E95.80622
G0 F3600 X57.633 Y39.531
G1 F1800 X47.35 Y29.248 E96.2899
G0 F3600 X47.913 Y29.245
G1 F1800 X58.196 Y39.528 E96.77358
G0 F3600 X58.759 Y39.525
G1 F1800 X48.475 Y29.242 E97.25729
G0 F3600 X49.038 Y29.239
G1 F1800 X59.321 Y39.522 E97.74097
G0 F3600 X59.884 Y39.519
G1 F1800 X49.601 Y29.236 E98.22465
G0 F3600 X50.164 Y29.233
G1 F1800 X60.447 Y39.516 E98.70833
G0 F3600 X61.009 Y39.513
G1 F1800 X50.726 Y29.23 E99.19201
G0 F3600 X51.289 Y29.227
G1 F1800 X61.572 Y39.51 E99.67569
G0 F3600 X62.134 Y39.507
G1 F1800 X51.852 Y29.224 E100.15935
G0 F3600 X52.414 Y29.221
G1 F1800 X62.697 Y39.504 E100.64303
G0 F3600 X63.259 Y39.501
G1 F1800 X52.977 Y29.218 E101.12669
G0 F3600 X53.54 Y29.215
G1 F1800 X63.822 Y39.498 E101.61034
G0 F3600 X64.385 Y39.495
G1 F1800 X54.102 Y29.212 E102.09402
G0 F3600 X54.665 Y29.209
G1 F1800 X64.948 Y39.492 E102.5777
G0 F3600 X65.51 Y39.489
G1 F1800 X55.227 Y29.206 E103.06139
G0 F3600 X55.79 Y29.203
G1 F1800 X66.073 Y39.486 E103.54507
G0 F3600 X66.636 Y39.483
G1 F1800 X56.353 Y29.2 E104.02875
G0 F3600 X56.915 Y29.197
G1 F1800 X67.198 Y39.479 E104.5124
G0 F3600 X67.761 Y39.477
G1 F1800 X57.478 Y29.194 E104.99608
G0 F3600 X58.041 Y29.191
G1 F1800 X68.324 Y39.474 E105.47977
G0 F3600 X68.887 Y39.471
